!!!SOCIAL_FUNCTION:	songs of war
!!!PDT:	1918

Specific Region: Dakotas, Minnesota, Montana, Nebraska
!!!REG: Dakotas and Montana
!!!LING_GROUP: Siouan
!!!LANG: Tone
!!!OTL@ENG: Friends, Go On
!!!ONM: No. 128
**kern
*Imale
*clefF4
*k[b-e-]
*M3/4
*MM92
4d
4d
16e-
16d
16d
16c
=1||
*M2/4
8B-
8B-
16B-
16G
8G
=2||
*M3/4
8B-
8B-
8B-
8B-
8B-
16d
16c
=3||
*M2/4
8B-
8B-
16B-
16G
8G
=4||
*M3/4
8B-
8B-
16B-
16G
8G
8G
8G
=5||
*M2/4
8F
8F
16F
16D
8D
=6||
*M3/4
4G
4G
8B-
8G
=7||
*M2/4
8F
8F
8D
8D
=8
2D
=9||
*M3/4
4D
4D
4r
=10
8G
8B-
8B-
8B-
8B-
(16d
16c)
=11||
*M2/4
8B-
8B-
(16B-
16G)
8G
=12||
*M3/4
8B-
8B-
(16B-
16G)
8G
8G
8G
=13||
*M2/4
8F
8F
(16F
16D)
8D
=14||
*M3/4
4G
4G
8B-
8G
=15||
*M2/4
8F
8F
8D
8D
=16
2D
=17
2D
==
*-
!!!CNT: Native American -- Sioux
!!!MRD: 1911/07//-1914///
!!!OCL: Frances Densmore
!!!YOR1: Teton Sioux Music, Bulletin 61,
!!!YOR2: Bureau of American Ethnology, Smithsonian Institution
!!!PPR: Government Printing Office
!!!PPP: Washington, D.C.
!!!PDT: 1918///
!!!ENC: Craig Stuart Sapp
!!!END: 2002/03/25/
!!!EEV: 2002/03/31/
!!!AGN: War Song/Song of a Typical War Expedition
!!!MPN@@SIO: Waha'chungka-nong'pa
!!!MPN@ENG: Two Shields
!!!TXO: Teton Sioux
!!!MLC: Standing Rock Reservation, South Dakota, United States of America
!!!ARL: 45.9/-100.7#
!!!catalog: Catalogue No. 527
!!!PPG: 338
!!!EFL: 129/245
!!!VTS: 2295786619
